lugar/img/hero_decor02.svg

<svg width="160" height="160" viewBox="0 0 160 160" fill="none" xmlns="http://www.w3.org/2000/svg">
<g clip-path="url(#clip0_1_446)">
<path fill-rule="evenodd" clip-rule="evenodd" d="M74.8899 115.056C92.946 124.84 113.597 132.027 134.072 130.619C141.522 130.107 148.418 127.959 155.498 125.823C155.995 125.674 156.278 125.148 156.129 124.649C155.977 124.15 155.451 123.866 154.952 124.018C148.008 126.111 141.249 128.235 133.943 128.736C113.759 130.124 93.4129 122.977 75.6299 113.312L75.7566 113.027C77.1398 109.93 76.283 105.411 74.0232 100.667C70.785 93.8681 64.7555 86.5622 59.3295 82.5268C56.8909 80.714 54.5541 79.5617 52.627 79.3209C51.1246 79.1321 49.8358 79.4699 48.84 80.3688C46.7192 82.286 46.7937 85.5565 48.4749 89.3485C51.9888 97.2802 62.3094 107.725 67.9068 111.075C69.6551 112.12 71.4331 113.148 73.2385 114.149C73.01 114.701 72.784 115.239 72.5407 115.754C71.8429 117.216 70.9861 118.495 69.3347 119.372C66.7595 120.735 63.6728 120.971 60.514 120.618C55.5847 120.065 50.4815 118.061 46.7242 116.34C25.7998 106.754 15.437 90.1282 9.87935 73.4379C4.26955 56.5812 3.5345 39.645 1.87316 29.6547C1.78873 29.1406 1.302 28.7955 0.787958 28.8799C0.273913 28.9643 -0.0737496 29.4511 0.0131663 29.9651C1.68443 40.02 2.44182 57.0655 8.09135 74.0339C13.793 91.1688 24.4588 108.214 45.937 118.056C49.8507 119.848 55.1699 121.917 60.3029 122.493C63.8565 122.891 67.3208 122.573 70.2188 121.038C72.8188 119.66 73.8519 117.509 74.8899 115.056ZM73.9711 112.399L74.0356 112.257C75.245 109.55 74.2964 105.627 72.3197 101.479C69.2081 94.9459 63.4195 87.9206 58.2021 84.0416C56.4141 82.7106 54.7031 81.7545 53.1982 81.3522C51.9565 81.0219 50.8788 81.0691 50.1065 81.7694C49.3739 82.4275 49.0833 83.3339 49.0958 84.3893C49.1082 85.6285 49.5204 87.0514 50.1984 88.5836C53.5757 96.2049 63.4965 106.237 68.8753 109.456C70.5466 110.454 72.2452 111.438 73.9711 112.399Z" fill="#1E3240"/>
<path fill-rule="evenodd" clip-rule="evenodd" d="M157.892 122.904C157.81 123.309 157.535 123.818 157.232 124.361C156.511 125.658 155.486 127.038 155.029 127.709C154.736 128.141 154.85 128.727 155.28 129.02C155.712 129.313 156.298 129.201 156.591 128.769C157.15 127.947 158.513 126.105 159.246 124.578C159.638 123.758 159.842 123.001 159.797 122.457C159.722 121.53 158.99 120.952 157.537 120.987C155.819 121.029 152.627 121.891 149.955 120.855C149.471 120.666 148.922 120.91 148.736 121.394C148.547 121.881 148.788 122.427 149.275 122.616C151.823 123.602 154.793 123.127 156.792 122.929C157.172 122.891 157.624 122.896 157.892 122.904Z" fill="#1E3240"/>
</g>
<defs>
<clipPath id="clip0_1_446">
<rect width="160" height="160" fill="white"/>
</clipPath>
</defs>
</svg>

<svg width="160" height="160" fill="none" xmlns="http://www.w3.org/2000/svg"><g clip-path="url(#clip0_1_446)" fill-rule="evenodd" clip-rule="evenodd" fill="#1E3240"><path d="M74.89 115.056c18.056 9.784 38.707 16.971 59.182 15.563 7.45-.512 14.346-2.66 21.426-4.796a.944.944 0 10-.546-1.805c-6.944 2.093-13.703 4.217-21.009 4.718-20.184 1.388-40.53-5.759-58.313-15.424l.127-.285c1.383-3.097.526-7.616-1.734-12.36-3.238-6.799-9.267-14.105-14.693-18.14-2.44-1.813-4.776-2.965-6.703-3.206-1.502-.189-2.791.149-3.787 1.048-2.12 1.917-2.046 5.188-.365 8.98 3.514 7.931 13.834 18.376 19.432 21.726a189.472 189.472 0 005.332 3.074c-.229.552-.455 1.09-.698 1.605-.698 1.462-1.555 2.741-3.206 3.618-2.575 1.363-5.662 1.599-8.821 1.246-4.93-.553-10.033-2.557-13.79-4.278C25.8 106.754 15.437 90.128 9.88 73.438 4.27 56.58 3.534 39.645 1.873 29.655a.943.943 0 10-1.86.31c1.671 10.055 2.429 27.1 8.078 44.069 5.702 17.135 16.368 34.18 37.846 44.022 3.914 1.792 9.233 3.861 14.366 4.437 3.553.398 7.018.08 9.916-1.455 2.6-1.378 3.633-3.529 4.67-5.982zm-.919-2.657l.065-.142c1.209-2.707.26-6.63-1.716-10.778-3.112-6.533-8.9-13.558-14.118-17.437-1.788-1.331-3.499-2.288-5.004-2.69-1.242-.33-2.32-.283-3.092.417-.732.658-1.023 1.565-1.01 2.62.012 1.24.424 2.662 1.102 4.195 3.378 7.62 13.298 17.653 18.677 20.872 1.672.998 3.37 1.982 5.096 2.943z"/><path d="M157.892 122.904c-.082.405-.357.914-.66 1.457-.721 1.297-1.746 2.677-2.203 3.348a.945.945 0 001.562 1.06c.559-.822 1.922-2.664 2.655-4.191.392-.82.596-1.577.551-2.121-.075-.927-.807-1.505-2.26-1.47-1.718.042-4.91.904-7.582-.132a.943.943 0 00-.68 1.761c2.548.986 5.518.511 7.517.313.38-.038.832-.033 1.1-.025z"/></g><defs><clipPath id="clip0_1_446"><path fill="#fff" d="M0 0h160v160H0z"/></clipPath></defs></svg>
